!!!!SEGMENT: pl-kk--kk-i-7--015_anonim--alleluia-prophetae.krn
!!!cenid: 16xx:805
!!!COM: Anonim
!!!COM-rismID: pe30004985
!!!CDT:
!!!CNT:
!!!OTL: Alleluia prophetae
!!!PDT:
!!!AGN: Sacred
!!!SMS-siglum: PL-Kk
!!!SMS-shelfmark: Kk.I.7
!!!SMS-shelfwork: 015 W
!!!SMS-variant:
!!!SMS-altvar:
!!!NIFC-rismSourceID: 300258077
!!!NIFC-rismChildID: 300258092
!!!NIFC-islandoraID: pl-kk:1956
!!!URL-pdf-islandora: https://repozytorium.nifc.pl/islandora/object/pl-kk%3A1956/datastream/PDF/view
!!!URL-scan: https://polish.musicsources.pl/pl/lokalizacje/galeria/rekopisy/6140 @EN{Scan on Polish Music Sources Website} @PL{Skany w portalu Dziedzictwo Muzyki Polskiej w otwartym dostępie}
!!!ONB-nifc: UWAGA: C (skan 0011-0012, s.17-18), A (0098, s.17), T (0174-0175, s.13-14), B (0263-0264, s.17-18). Następny utwór: Mittit ad virginem
!!!AIN: 1 alto 1 bass 1 soprn 1 tenor
!!!key:
**kern	**text	**text	**kern	**text	**text	**kern	**text	**text	**kern	**text	**text
*part4	*part4	*part4	*part3	*part3	*part3	*part2	*part2	*part2	*part1	*part1	*part1
*staff4	*staff4	*staff4	*staff3	*staff3	*staff3	*staff2	*staff2	*staff2	*staff1	*staff1	*staff1
*	*verse1	*verse2	*	*verse1	*verse2	*	*verse1	*verse2	*	*verse1	*verse2
*Ibass	*	*	*Itenor	*	*	*Ialto	*	*	*Isoprn	*	*
*I"BASSVS.	*	*	*I"TENOR.	*	*	*I"ALTVS.	*	*	*I"CANTVS.	*	*
*I'B	*	*	*I'T	*	*	*I'A	*	*	*I'S	*	*
*clefF4	*	*	*clefC4	*	*	*clefC4	*	*	*clefC3	*	*
*k[]	*	*	*k[]	*	*	*k[]	*	*	*k[]	*	*
*a:	*	*	*a:	*	*	*a:	*	*	*a:	*	*
*M2/1	*	*	*M2/1	*	*	*M2/1	*	*	*M2/1	*	*
*met(C|)	*	*	*met(C|)	*	*	*met(C|)	*	*	*met(C|)	*	*
=1!|:	=1!|:	=1!|:	=1!|:	=1!|:	=1!|:	=1!|:	=1!|:	=1!|:	=1!|:	=1!|:	=1!|:
*xywh-#263:7187,3774,6005,941	*	*	*xywh-#174:9164,3698,4184,937	*	*	*xywh-#98:7195,1146,6217,903	*	*	*xywh-#11:7014,468,6287,1211	*	*
!LO:TX:t=P:problem=inicjał "A" przed kluczem na pięciolinii	!	!	!LO:TX:t=P:problem=inicjał "A" przed kluczem na pięciolinii	!	!	!LO:TX:t=P:problem=inicjał "A" przed kluczem na pięciolinii	!	!	!LO:TX:t=P:problem=inicjał "A" przed kluczem na pięciolinii	!	!
*	*	*	*lig	*	*	*	*	*	*	*	*
!	!	!	!	!	!	!LO:TX:t=P:problem=kreska pseudotaktowa	!	!	!	!	!
1C	A[l]-	.	1C	AL-	.	0.G	AL-	.	1c	AL-	.
*2\right	*	*	*	*	*	*	*	*	*2\right	*	*
!	!	!	!LO:TX:t=P:problem=kreska pseudotaktowa	!	!	!	!	!	!	!	!
2GG/	-le-	.	1D	.	.	.	.	.	2Bn/	-le-	.
!LO:TX:t=P::problem=kreska pseudotaktowa&colon;między nutą a kropką	!	!	!	!	!	!	!	!	!	!	!
2.GG/	.	.	.	.	.	.	.	.	1d\	.	.
*	*	*	*Xlig	*	*	*	*	*	*	*	*
=2-	=2-	=2-	=2-	=2-	=2-	=2-	=2-	=2-	=2-	=2-	=2-
*	*	*	*lig	*	*	*	*	*	*	*	*
.	.	.	1D	-le-	.	.	.	.	.	.	.
4AA/	.	.	.	.	.	.	.	.	.	.	.
4BB/	.	.	.	.	.	.	.	.	4c/	.	.
!LO:TX:t=P:problem=kreska pseudotaktowa	!	!	!	!	!	!	!	!	!LO:TX:t=P:problem=kreska pseudotaktowa	!	!
4C/	.	.	.	.	.	.	.	.	4B/	.	.
*	*	*	*	*	*	*2\right	*	*	*	*	*
2.D/	.	.	1F	.	.	2F/	-le-	.	2A/	.	.
!	!	!	!	!	!	!LO:TX:t=P::problem=kreska pseudotaktowa&colon;między nutą a kropką	!	!	!LO:TX:t=P:problem=kreska pseudotaktowa	!	!
.	.	.	.	.	.	2.A/	.	.	2d\	.	.
!LO:TX:t=P:problem=all\right&colon; global	!	!	!	!	!	!	!	!	!	!	!
4E\	.	.	.	.	.	.	.	.	.	.	.
*	*	*	*Xlig	*	*	*	*	*	*	*	*
=3-	=3-	=3-	=3-	=3-	=3-	=3-	=3-	=3-	=3-	=3-	=3-
*	*	*	*lig	*	*	*	*	*	*	*	*
2F\	.	.	1F	.	.	.	.	.	2.c/	.	.
!	!	!	!	!	!	!LO:TX:t=P:problem=all\right&colon; global	!	!	!	!	!
.	.	.	.	.	.	4B\	.	.	.	.	.
!LO:TX:t=P:problem=kreska pseudotaktowa	!	!	!	!	!	!LO:TX:t=P:problem=kreska pseudotaktowa	!	!	!	!	!
2FF/	.	.	.	.	.	2c\	.	.	.	.	.
.	.	.	.	.	.	.	.	.	4B/	.	.
2.C/	-lu-	.	1E	.	.	4C/	.	.	2G/	.	.
.	.	.	.	.	.	4D/	.	.	.	.	.
!	!	!	!	!	!	!	!	!	!LO:TX:t=P:problem=kreska pseudotaktowa	!	!
.	.	.	.	.	.	4E/	.	.	2A/	.	.
!	!	!	!	!	!	!LO:TX:t=P:problem=kreska pseudotaktowa	!	!	!	!	!
4BB/	.	.	.	.	.	4F/	.	.	.	.	.
*	*	*	*Xlig	*	*	*	*	*	*	*	*
=4-	=4-	=4-	=4-	=4-	=4-	=4-	=4-	=4-	=4-	=4-	=4-
2GG/	.	.	1D	.	.	2G/	.	.	2B/	.	.
!LO:TX:t=P:problem=kreska pseudotaktowa	!	!	!	!	!	!	!	!	!	!	!
2AA/	.	.	.	.	.	4F/	.	.	1A	.	.
!	!	!	!	!	!	!LO:TX:t=P:problem=kreska pseudotaktowa	!	!	!	!	!
.	.	.	.	.	.	4E/	.	.	.	.	.
1BBn	.	.	1D	-lu-	.	2D/	.	.	.	.	.
!	!	!	!	!	!	!LO:TX:t=P:problem=kreska pseudotaktowa	!	!	!LO:TX:t=P:problem=kreska pseudotaktowa	!	!
.	.	.	.	.	.	2d\	-lu-	.	2G/	.	.
=5-	=5-	=5-	=5-	=5-	=5-	=5-	=5-	=5-	=5-	=5-	=5-
1AA	.	.	0E;>	-ia	.	2c\	-ia	.	2A/	.	.
.	.	.	.	.	.	1A	.	.	2c/	-lu-	.
1E;	-ia	.	.	.	.	.	.	.	1Bn;>	-ia	.
.	.	.	.	.	.	2G;>/	.	.	.	.	.
=6:|!	=6:|!	=6:|!	=6:|!	=6:|!	=6:|!	=6:|!	=6:|!	=6:|!	=6:|!	=6:|!	=6:|!
*	*	*	*lig	*	*	*	*	*	*	*	*
2.D/	Al-	.	1F	Al-	.	4A/	Al-	.	1d	.	.
.	.	.	.	.	.	4G/	.	.	.	.	.
.	.	.	.	.	.	4F/	.	.	.	.	.
!	!	!	!	!	!	!LO:TX:t=P:problem=kreska pseudotaktowa	!	!	!	!	!
4C/	.	.	.	.	.	4E/	.	.	.	.	.
2BBn/	.	.	1G	.	.	2D/	.	.	2r	.	.
!LO:TX:t=P:problem=kreska pseudotaktowa	!	!	!	!	!	!	!	!	!LO:TX:t=P:problem=kreska pseudotaktowa	!	!
2C/	-le-	.	.	.	.	2E/	.	.	2G/	.	.
*	*	*	*Xlig	*	*	*	*	*	*	*	*
=7-	=7-	=7-	=7-	=7-	=7-	=7-	=7-	=7-	=7-	=7-	=7-
*	*	*	*lig	*	*	*	*	*	*	*	*
1AA	-lu-	.	1F	.	.	1C	-le-	.	2A/	Al-	.
.	.	.	.	.	.	.	.	.	1c	-le	.
1GG	-ia	.	1G	.	.	1D	-lu-	.	.	.	.
!	!	!	!	!	!	!	!	!	!LO:TX:t=P:problem=kreska pseudotaktowa	!	!
.	.	.	.	.	.	.	.	.	2B/	-lu-	.
!	!	!	!	!	!	!	!	!	!	!	!
*	*	*	*Xlig	*	*	*	*	*	*	*	*
=8-	=8-	=8-	=8-	=8-	=8-	=8-	=8-	=8-	=8-	=8-	=8-
*	*ij	*	*lig	*	*	*	*	*	*	*	*
!	!	!	!	!	!	!LO:TX:t=P:problem=kreska pseudotaktowa	!	!	!	!	!
2.G\	Al-	.	1E	.	.	1C	-ia	.	2c/	-ia	.
.	.	.	.	.	.	.	.	.	2g\	.	.
!LO:TX:t=P:problem=kreska pseudotaktowa	!	!	!	!	!	!	!	!	!	!	!
4F\	.	.	.	.	.	.	.	.	.	.	.
2.D/	-le-	.	1F	.	.	2r	.	.	2f\	.	.
*	*	*	*	*	*	*	*ij	*	*	*ij	*
!	!	!	!	!	!	!	!	!	!LO:TX:t=P::problem=kreska pseudotaktowa&colon;między nutą a kropką	!	!
.	.	.	.	.	.	2F/	Al-	.	2.d\	Al-	.
4E\	.	.	.	.	.	.	.	.	.	.	.
*	*	*	*Xlig	*	*	*	*	*	*	*	*
=9-	=9-	=9-	=9-	=9-	=9-	=9-	=9-	=9-	=9-	=9-	=9-
*	*	*	*custos:F	*	*	*	*	*	*	*	*
2.F\	-lu-	.	1D	.	.	1.A	.	.	.	.	.
!	!	!	!	!	!	!	!	!	!LO:TX:t=P:problem=all\right&colon; global	!	!
.	.	.	.	.	.	.	.	.	4e\	.	.
.	.	.	.	.	.	.	.	.	1f	-le-	.
*custos:D	*	*	*	*	*	*	*	*	*	*	*
!LO:TX:t=P:problem=kreska pseudotaktowa	!	!	!	!	!	!	!	!	!	!	!
4E\	.	.	.	.	.	.	.	.	.	.	.
*	*	*	*xywh-#175:755,495,6188,1022	*	*	*	*	*	*	*	*
*xywh-#264:687,519,5168,912	*	*	*	*	*	*	*	*	*	*	*
!LO:PB:g=original	!	!	!LO:PB:g=original	!	!	!	!	!	!	!	!
*	*	*	*lig	*	*	*	*	*	*	*	*
4D/	.	.	1F	.	.	.	.	.	.	.	.
4C/	.	.	.	.	.	.	.	.	.	.	.
!LO:TX:t=P:problem=kreska pseudotaktowa	!	!	!	!	!	!LO:TX:t=P:problem=kreska pseudotaktowa	!	!	!	!	!
2D/	-ia	.	.	.	.	2B\	.	.	4e\	.	.
!	!	!	!	!	!	!	!	!	!LO:TX:t=P:problem=kreska pseudotaktowa	!	!
.	.	.	.	.	.	.	.	.	4d\	.	.
=10-	=10-	=10-	=10-	=10-	=10-	=10-	=10-	=10-	=10-	=10-	=10-
2C/	.	.	1G	.	.	4c\	.	.	2e\	.	.
.	.	.	.	.	.	4C/	.	.	.	.	.
!	!	!	!	!	!	!LO:TX:t=P:problem=kreska pseudotaktowa	!	!	!	!	!
2BB/	.	.	.	.	.	2D/	.	.	1d	.	.
*	*Xij	*	*Xlig	*	*	*	*	*	*	*	*
!LO:TX:t=P:problem=kreska pseudotaktowa	!	!	!	!	!	!	!	!	!	!	!
1AA	Al-	.	0A	.	.	1E	-le-	.	.	.	.
*	*	*	*	*	*	*	*	*	*	*	*
*	*	*	*	*	*	*	*	*	*custos:d	*	*
!	!	!	!	!	!	!	!	!	!LO:TX:t=P:problem=kreska pseudotaktowa	!	!
.	.	.	.	.	.	.	.	.	2c/	.	.
!	!	!	!	!	!	!	!	!	!LO:LB:g=original	!	!
=11-	=11-	=11-	=11-	=11-	=11-	=11-	=11-	=11-	=11-	=11-	=11-
*	*	*	*	*	*	*	*	*	*xywh-#11:7105,1253,5940,1028	*	*
*	*	*	*	*	*	*custos:D	*	*	*	*	*
!	!	!	!	!	!	!LO:TX:t=P:problem=kreska pseudotaktowa	!	!	!	!	!
1D	-le-	.	.	.	.	1F	.	.	0d	-lu-	.
*	*	*	*lig	*	*	*	*	*	*	*	*
*	*	*	*	*	*	*xywh-#98:7276,1782,6217,842	*	*	*	*	*
!	!	!	!	!	!	!LO:LB:g=original	!	!	!	!	!
1GG	.	.	1G	.	.	2D/	-lu-	.	.	.	.
.	.	.	.	.	.	1G/	.	.	.	.	.
=12-	=12-	=12-	=12-	=12-	=12-	=12-	=12-	=12-	=12-	=12-	=12-
!	!	!	!	!	!	!	!	!	!LO:TX:t=P::problem=kreska pseudotaktowa&colon;między nutą a kropką	!	!
1C	-lu-	.	1E	.	.	.	.	.	1.c	-ia	.
!	!	!	!	!	!	!LO:TX:t=P::problem=kreska pseudotaktowa&colon;między nutą a kropką	!	!	!	!	!
.	.	.	.	.	.	2.A/	-ia	.	.	.	.
*	*	*	*Xlig	*	*	*	*Xij	*	*	*	*
*	*	*	*lig	*	*	*	*	*	*	*	*
!LO:TX:t=P:problem=kreska pseudotaktowa	!	!	!	!	!	!	!	!	!	!	!
1FF	-ia	.	1F	.	.	.	.	.	.	.	.
.	.	.	.	.	.	4B\	.	.	.	.	.
.	.	.	.	.	.	1c\	Al-	.	2c/	Al-	.
=13-	=13-	=13-	=13-	=13-	=13-	=13-	=13-	=13-	=13-	=13-	=13-
2r	.	.	1D	.	.	.	.	.	2d\	-le-	.
*	*ij	*	*	*	*	*	*	*	*	*	*
!	!	!	!	!	!	!LO:TX:t=P:problem=kreska pseudotaktowa	!	!	!	!	!
2F\	Al-	.	.	.	.	2B\	-le-	.	1f	.	.
*	*	*	*Xlig	*	*	*	*	*	*	*	*
!LO:TX:t=P:problem=kreska pseudotaktowa	!	!	!	!	!	!	!	!	!	!	!
*	*	*	*lig	*	*	*	*	*	*	*	*
1G	.	.	1C	.	.	1c	-lu-	.	.	.	.
!	!	!	!	!	!	!	!	!	!LO:TX:t=P:problem=kreska pseudotaktowa	!	!
.	.	.	.	.	.	.	.	.	2e\	.	.
=14-	=14-	=14-	=14-	=14-	=14-	=14-	=14-	=14-	=14-	=14-	=14-
2GG/	-le-	.	1D	.	.	2B\	-ia	.	1d	.	.
*	*	*	*	*	*	*	*ij	*	*	*	*
!	!	!	!	!	!	!LO:TX:t=P:problem=kreska pseudotaktowa	!	!	!	!	!
2BB/	.	.	.	.	.	2G/	Al-	.	.	.	.
*	*	*	*Xlig	*	*	*	*	*	*	*	*
*	*	*	*lig	*	*	*	*	*	*	*	*
1AA	.	.	1E	.	.	2A/	-le-	.	4c/	.	.
.	.	.	.	.	.	.	.	.	4d\	.	.
.	.	.	.	.	.	1c\	.	.	4e\	.	.
!	!	!	!	!	!	!	!	!	!LO:TX:t=P:problem=kreska pseudotaktowa	!	!
.	.	.	.	.	.	.	.	.	4c/	.	.
=15-	=15-	=15-	=15-	=15-	=15-	=15-	=15-	=15-	=15-	=15-	=15-
1D	-lu-	.	1F	-le-	.	.	.	.	4d\	.	.
.	.	.	.	.	.	.	.	.	4e\	.	.
.	.	.	.	.	.	2B\	-lu-	.	2.f\	-lu-	.
*	*	*	*Xlig	*	*	*	*	*	*	*	*
*	*	*	*lig	*	*	*	*	*	*	*	*
!LO:TX:t=P:problem=kreska pseudotaktowa	!	!	!	!	!	!LO:TX:t=P:problem=kreska pseudotaktowa	!	!	!	!	!
1C	-ia	.	1G	.	.	1c	-ia	.	.	.	.
.	.	.	.	.	.	.	.	.	4e\	.	.
.	.	.	.	.	.	.	.	.	1e\	-ia	.
*	*	*	*	*	*	*	*	*	*	*Xij	*
=16-	=16-	=16-	=16-	=16-	=16-	=16-	=16-	=16-	=16-	=16-	=16-
1D	Al-	.	1F	-lu-	.	1.A	Al-	.	.	.	.
!	!	!	!	!	!	!	!	!	!LO:TX:t=P:problem=kreska pseudotaktowa	!	!
.	.	.	.	.	.	.	.	.	2d\	Al-	.
*	*	*	*Xlig	*	*	*	*	*	*	*	*
2BB/	.	.	0E	-ia.	.	.	.	.	2.e\	.	.
1C/	-le-	.	.	.	.	4G/	.	.	.	.	.
!	!	!	!	!	!	!LO:TX:t=P:problem=kreska pseudotaktowa	!	!	!LO:TX:t=P:problem=kreska pseudotaktowa	!	!
.	.	.	.	.	.	4F/	.	.	4d\	.	.
=17-	=17-	=17-	=17-	=17-	=17-	=17-	=17-	=17-	=17-	=17-	=17-
.	.	.	.	.	.	2G/	-le-	.	4c/	.	.
.	.	.	.	.	.	.	.	.	4B/	-le-	.
!LO:TX:t=P:problem=kreska pseudotaktowa	!	!	!	!	!	!	!	!	!	!	!
2AA/	.	.	.	.	.	1A	-lu-	.	1c	-lu-	.
2.C/	-lu-	.	[0El;>	.	.	.	.	.	.	.	.
!	!	!	!	!	!	!LO:TX:t=P:♯below:problem	!	!	!	!	!
.	.	.	.	.	.	4G#X/	.	.	4B/	-ia.	.
!	!	!	!	!	!	!LO:TX:t=P:♯below:problem	!	!	!	!	!
4D/	.	.	.	.	.	4F#X/	.	.	4A/	.	.
=18-	=18-	=18-	=18-	=18-	=18-	=18-	=18-	=18-	=18-	=18-	=18-
0E;>	-ia	.	.	.	.	0G#X;>	-ia	.	0Bn;>	.	.
.	.	.	1E]	.	.	.	.	.	.	.	.
*	*Xij	*	*	*	*	*	*Xij	*	*	*	*
!LO:LB:g=original	!	!	!	!	!	!	!	!	!	!	!
=19||	=19||	=19||	=19||	=19||	=19||	=19||	=19||	=19||	=19||	=19||	=19||
*xywh-#264:891,1102,6040,996	*	*	*	*	*	*	*	*	*	*	*
*M2/1	*	*	*M2/1	*	*	*M2/1	*	*	*M2/1	*	*
*met(C|)	*	*	*met(C|)	*	*	*met(C|)	*	*	*met(C|)	*	*
!LO:TX:t=P:problem=inicjał "P" przed metrum na pięciolinii	!	!	!LO:TX:t=P:problem=inicjał "P" przed metrum na pięciolinii	!	!	!	!LO:TX:t=P:problem=inicjał "P" przed metrum na pięciolinii	!	!LO:TX:t=P:problem=inicjał "P" przed metrum na pięciolinii	!	!
!	!	!	!	!	!	!	!	!	!LO:TX:t=P:problem=kreska pseudotaktowa	!	!
1D	PRo-	POst	1F	PRo-	POſt	0A	PRo-	Post	1d	PRo-	Post
*	*	*	*lig	*	*	*	*	*	*	*	*
2.D\	-phe-	.	1F	-phe-	par-	.	.	.	2d\	-phe-	par-
.	.	.	.	.	.	.	.	.	1f\	.	.
!LO:TX:t=P:problem=kreska pseudotaktowa	!	!	!	!	!	!	!	!	!	!	!
4E\	.	par-	.	.	.	.	.	.	.	.	.
=20-	=20-	=20-	=20-	=20-	=20-	=20-	=20-	=20-	=20-	=20-	=20-
4F\	.	.	1D	.	.	2.A/	-phe-	par-	.	.	.
4E\	.	.	.	.	.	.	.	.	.	.	.
4F\	.	.	.	.	.	.	.	.	4e\	.	.
!	!	!	!	!	!	!LO:TX:t=P:problem=kreska pseudotaktowa	!	!	!LO:TX:t=P:problem=kreska pseudotaktowa	!	!
4G\	.	.	.	.	.	4B\	.	.	4d\	.	.
*	*	*	*Xlig	*	*	*	*	*	*	*	*
*	*	*	*lig	*	*	*	*	*	*	*	*
1A	.	.	1F	.	.	4A/	.	.	1c	-tae	-tum
.	.	.	.	.	.	4B\	.	.	.	.	.
.	.	.	.	.	.	1c\	.	.	.	.	.
=21-	=21-	=21-	=21-	=21-	=21-	=21-	=21-	=21-	=21-	=21-	=21-
1F	.	.	1D	.	.	.	.	.	2d\	.	.
!	!	!	!	!	!	!LO:TX:t=P:problem=kreska pseudotaktowa	!	!	!	!	!
.	.	.	.	.	.	2B\	.	.	1f	San-	Vir-
*	*	*	*Xlig	*	*	*	*	*	*	*	*
!LO:TX:t=P:problem=kreska pseudotaktowa	!	!	!LO:TX:t=P:problem=kreska pseudotaktowa	!	!	!	!	!	!	!	!
1G	-tae	-tum	1C	-tae	-t(um)	1c	-tae	.	.	.	.
!	!	!	!	!	!	!	!	!	!LO:TX:t=P:problem=kreska pseudotaktowa	!	!
.	.	.	.	.	.	.	.	.	2e\	.	.
=22-	=22-	=22-	=22-	=22-	=22-	=22-	=22-	=22-	=22-	=22-	=22-
*	*	*	*	*	*	*	*	*	*custos:c	*	*
!	!	!	!	!	!	!	!	!	!LO:TX:t=P:problem=kreska pseudotaktowa	!	!
2GG/	San-	Vir-	1D	San-	Vir-	2B\	.	-t(um)	1d	.	.
*	*	*	*	*	*	*custos:A	*	*	*	*	*
!	!	!	!	!	!	!LO:TX:t=P:problem=kreska pseudotaktowa	!	!	!	!	!
2BB/	.	.	.	.	.	2G/	San-	Vir-	.	.	.
*	*	*	*	*	*	*	*	*	*xywh-#11:7172,1996,6019,1052	*	*
*	*	*	*	*	*	*xywh-#98:7286,2367,6157,832	*	*	*	*	*
!	!	!	!	!	!	!LO:LB:g=original	!	!	!LO:LB:g=original	!	!
!LO:TX:t=P:problem=kreska pseudotaktowa	!	!	!LO:TX:t=P:problem=kreska pseudotaktowa	!	!	!	!	!	!	!	!
0AA	-cti	-go	1E	-cti	-go	1.A	-cti	-go	2c/	-cti	-go
!	!	!	!	!	!	!	!	!	!LO:TX:t=P:problem=kreska pseudotaktowa	!	!
.	.	.	.	.	.	.	.	.	2e\	prae-	in-
=23-	=23-	=23-	=23-	=23-	=23-	=23-	=23-	=23-	=23-	=23-	=23-
!	!	!	!	!	!	!	!	!	!LO:SIC:l:v:s=-vio-:verse 2	!	!
.	.	.	1E	prae-	in-	.	.	.	1c	-di-	-uio-
!	!	!	!	!	!	!LO:TX:t=P:problem=kreska pseudotaktowa	!	!	!	!	!
.	.	.	.	.	.	2A/	prae-	in-	.	.	.
!	!	!	!	!	!	!	!	!	!LO:TX:t=P:problem=kreska pseudotaktowa	!	!
!	!	!	!LO:SIC:l:v:s=-vi-:verse 2	!	!	!LO:SIC:l:v:s=-vio-:verse 2	!	!	!	!	!
2r	.	.	1C	-di-	-ui-	1G	-di-	-uio-	1e	-ca-	-la-
2E\	prae-	in-	.	.	.	.	.	.	.	.	.
=24-	=24-	=24-	=24-	=24-	=24-	=24-	=24-	=24-	=24-	=24-	=24-
*	*	*	*	*	*	*lig	*	*	*	*	*
*	*	*	*custos:G	*	*	*	*	*	*	*	*
!LO:TX:t=P:problem=kreska pseudotaktowa	!	!	!	!	!	!	!	!	!	!	!
!LO:SIC:l:v:s=-vio-:verse 2	!	!	!	!	!	!	!	!	!LO:SIC:l:v:s=-ve-:verse 1	!	!
1C	-di-	-uio-	1E	-ca-	-o-	1c	-ca-	-la-	2.g\	-ue-	.
.	.	.	.	.	.	.	.	.	4f\	.	.
*	*	*	*xywh-#175:1070,1222,5872,871	*	*	*	*	*	*	*	*
!	!	!	!LO:LB:g=original	!	!	!	!	!	!	!	!
*	*	*	*lig	*	*	*	*	*	*	*	*
!	!	!	!LO:SIC:l:v:s=-ve-:verse 1	!	!	!LO:TX:t=P:problem=kreska pseudotaktowa	!	!	!	!	!
2E\	-ca-	-la-	1G	-ue-	-la-	1B	.	.	2e\	.	.
2G\	.	.	.	.	.	.	.	.	1d\	.	.
*	*	*	*	*	*	*Xlig	*	*	*	*	*
=25-	=25-	=25-	=25-	=25-	=25-	=25-	=25-	=25-	=25-	=25-	=25-
2.F\	.	.	1A	.	.	2A/	.	.	.	.	.
!	!	!	!	!	!	!	!	!	!LO:TX:t=P:problem=kreska pseudotaktowa	!	!
.	.	.	.	.	.	1c	.	.	2c/	.	.
!LO:TX:t=P:problem=kreska pseudotaktowa	!	!	!	!	!	!	!	!	!	!	!
4E\	.	.	.	.	.	.	.	.	.	.	.
*	*	*	*Xlig	*	*	*	*	*	*	*	*
*	*	*	*lig	*	*	*	*	*	*	*	*
1D	.	.	1F	.	.	.	.	.	2d\	.	.
!	!	!	!	!	!	!LO:TX:t=P:problem=kreska pseudotaktowa	!	!	!	!	!
.	.	.	.	.	.	2B\	.	.	2f\	.	.
=26-	=26-	=26-	=26-	=26-	=26-	=26-	=26-	=26-	=26-	=26-	=26-
2C/	.	.	1G	.	.	2c\	.	.	2e\	.	.
!LO:TX:t=P:problem=kreska pseudotaktowa	!	!	!	!	!	!	!	!	!LO:TX:t=P:problem=kreska pseudotaktowa	!	!
2BB/	.	.	.	.	.	2d\	.	.	2d\	.	.
*	*	*	*Xlig	*	*	*	*	*	*	*	*
*	*	*	*lig	*	*	*	*	*	*	*	*
!	!	!	!	!	!	!LO:SIC:l:v:s=-ve-:verse 1	!	!	!	!	!
1C	.	.	1E	.	.	1c	-ue-	.	1e	-runt	.
=27-	=27-	=27-	=27-	=27-	=27-	=27-	=27-	=27-	=27-	=27-	=27-
!LO:SIC:l:v:s=-ve-:verse 1	!	!	!	!	!	!LO:TX:t=P:problem=kreska pseudotaktowa	!	!	!LO:TX:t=P:problem=kreska pseudotaktowa	!	!
1D	-ue-	.	1F	.	.	1A	-runt	-ta	1d	.	-ta
*	*	*	*Xlig	*	*	*	*	*	*	*	*
!	!	!	!LO:TX:t=P:problem=kreska pseudotaktowa	!	!	!	!	!	!	!	!
2GG/	-runt	-ta	0D	-runt	-ta	1.B-X	na-	per-	2r	.	.
!LO:TX:t=P::problem=kreska pseudotaktowa&colon;między nutą a kropk	!	!	!	!	!	!	!	!	!	!	!
2.GG/	.	per-	.	.	.	.	.	.	1d\	na-	per-
=28-	=28-	=28-	=28-	=28-	=28-	=28-	=28-	=28-	=28-	=28-	=28-
.	.	.	.	.	.	.	.	.	.	.	.
4AA/	na-	.	.	.	.	.	.	.	.	.	.
4BB/	.	.	.	.	.	4A/	.	.	4c/	.	.
!	!	!	!	!	!	!	!	!	!LO:TX:t=P:problem=kreska pseudotaktowa	!	!
!	!	!	!	!	!	!LO:TX:t=P:problem=kreska pseudotaktowa	!	!	!LO:SIC:v:s=4B-	!	!
4C/	.	.	.	.	.	4G/	.	.	4B/	.	.
*	*	*	*lig	*	*	*	*	*	*	*	*
2D/	.	man-	1D	na-	per-	2F/	.	.	2A/	.	.
2GG/	.	-ſi-	.	.	.	2G/	.	.	2B-X/	.	.
=29-	=29-	=29-	=29-	=29-	=29-	=29-	=29-	=29-	=29-	=29-	=29-
*custos:D	*	*	*	*	*	*	*	*	*	*	*
!LO:TX:t=P:problem=kreska pseudotaktowa	!	!	!	!	!	!	!	!	!	!	!
1D	-Sci	-ſti	1F	.	.	2F/	-Sci	.	2A/	.	.
!	!	!	!	!	!	!LO:TX:t=P::problem=kreska pseudotaktowa&colon;między nutą a kropką	!	!	!LO:TX:t=P:problem=kreska pseudotaktowa	!	!
.	.	.	.	.	.	2.D/	.	.	2c/	-Sci	.
*xywh-#264:841,1665,6135,1121	*	*	*	*	*	*	*	*	*	*	*
!LO:LB:g=original	!	!	!	!	!	!	!	!	!	!	!
*	*	*	*Xlig	*	*	*	*	*	*	*	*
!	!	!	!LO:TX:t=P:problem=kreska pseudotaktowa	!	!	!	!	!	!	!	!
2r	.	.	1F	-Sci	-man-	.	.	.	2d\	Sal-	-man-
.	.	.	.	.	.	4E/	Sal-	.	.	.	.
!LO:TX:t=P:problem=kreska pseudotaktowa	!	!	!	!	!	!	!	!	!	!	!
!	!	!	!	!	!	!	!	!	!LO:SIC:l:v:s=-va-:verse 1	!	!
2D/	Sal-	per-	.	.	.	4F/	.	.	1f\	-ua-	.
.	.	.	.	.	.	4G/	.	.	.	.	.
=30-	=30-	=30-	=30-	=30-	=30-	=30-	=30-	=30-	=30-	=30-	=30-
!LO:SIC:l:v:s=-va-:verse 1	!	!	!	!	!	!	!	!	!	!	!
2.D/	-ua-	-man-	1F	Sal-	-ſi-	2A/	.	.	.	.	.
!	!	!	!	!	!	!LO:TX:t=P:problem=kreska pseudotaktowa	!	!	!	!	!
.	.	.	.	.	.	2D/	.	.	4e\	-to-	.
!	!	!	!	!	!	!	!	!	!LO:TX:t=P:problem=kreska pseudotaktowa	!	!
4C/	.	.	.	.	.	.	.	.	4d\	.	.
*	*	*	*lig	*	*	*	*	*	*	*	*
!	!	!	!LO:SIC:l:v:s=-va:verse 1	!	!	!	!	!	!	!	!
1AA	.	.	1E	-ua-	.	2A/	.	.	4c\	.	.
.	.	.	.	.	.	.	.	.	4d\	.	.
.	.	.	.	.	.	1c\	.	.	4e\	.	.
!	!	!	!	!	!	!	!	!	!LO:TX:t=P:problem=kreska pseudotaktowa	!	!
.	.	.	.	.	.	.	.	.	4c/	.	.
=31-	=31-	=31-	=31-	=31-	=31-	=31-	=31-	=31-	=31-	=31-	=31-
*lig	*	*	*	*	*	*	*	*	*	*	*
1D	-to-	.	1F	.	.	.	.	.	4d\	.	.
.	.	.	.	.	.	.	.	.	4e\	.	.
!	!	!	!	!	!	!LO:SIC:l:v:s=-va-:verse 1	!	!	!	!	!
!	!	!	!	!	!	!LO:TX:t=P:problem=kreska pseudotaktowa	!	!	!	!	!
.	.	.	.	.	.	2Bny\	-ua-	-man-	2.f\	.	.
*	*	*	*Xlig	*	*	*	*	*	*	*	*
1C	.	.	1G	.	.	1c	-to-	-si-	.	.	.
.	.	.	.	.	.	.	.	.	4e\	.	.
.	.	.	.	.	.	.	.	.	1e\	.	-ſi-
*Xlig	*	*	*	*	*	*	*	*	*	*	*
=32-	=32-	=32-	=32-	=32-	=32-	=32-	=32-	=32-	=32-	=32-	=32-
*	*	*	*lig	*	*	*	*	*	*	*	*
!LO:TX:t=P:problem=kreska pseudotaktowa	!	!	!	!	!	!LO:TX:t=P:problem=kreska pseudotaktowa	!	!	!	!	!
1D	-rem	-ſi-	1F	-to-	.	1A	-rem	-ſti	.	.	.
!	!	!	!	!	!	!	!	!	!LO:TX:t=P:problem=kreska pseudotaktowa	!	!
.	.	.	.	.	.	.	.	.	2d\	.	.
*	*	*	*	*	*	*	*	*	*custos:g	*	*
2AA/	.	-ſti	1E	.	-ſti	2r	.	.	2e\	-rem	-ſti
*	*	*	*	*	*	*	*	*	*xywh-#11:7191,2684,5904,1107	*	*
!	!	!	!	!	!	!	!	!	!LO:LB:g=original	!	!
2E\	.	.	.	.	.	2B\	de	in-	1g\	de	De-
*	*	*	*Xlig	*	*	*	*	*	*	*	*
=33-	=33-	=33-	=33-	=33-	=33-	=33-	=33-	=33-	=33-	=33-	=33-
!	!	!	!LO:TX:t=P:problem=kreska pseudotaktowa	!	!	!LO:SIC:l:v:s=-vio-:verse 2	!	!	!	!	!
1.G	de	De-	1E	-rem	De-	2B\	Vir-	-uio-	.	.	.
*	*	*	*	*	*	*custos:B	*	*	*	*	*
!	!	!	!	!	!	!LO:TX:t=P:problem=kreska pseudotaktowa	!	!	!	!	!
.	.	.	.	.	.	2c\	-gi-	.	4f\	.	.
!	!	!	!	!	!	!	!	!	!LO:TX:t=P:problem=kreska pseudotaktowa	!	!
.	.	.	.	.	.	.	.	.	4e\	.	.
*	*	*	*	*	*	*xywh-#98:7286,2932,6162,858	*	*	*	*	*
!	!	!	!	!	!	!LO:LB:g=original	!	!	!	!	!
.	.	.	1G	de	-i	2.B\	-ne	-la-	2d\	Vir-	-i
4F\	.	.	.	.	.	.	.	.	2e\	-gi-	.
!LO:TX:t=P:problem=kreska pseudotaktowa	!	!	!	!	!	!	!	!	!	!	!
4E\	.	.	.	.	.	4c\	.	.	.	.	.
=34-	=34-	=34-	=34-	=34-	=34-	=34-	=34-	=34-	=34-	=34-	=34-
2D/	.	.	1A	Vir-	ge-	4d\	.	.	2f\	-ne	ge-
.	.	.	.	.	.	4D/	.	.	.	.	.
!	!	!	!	!	!	!LO:TX:t=P:problem=kreska pseudotaktowa	!	!	!LO:TX:t=P:problem=kreska pseudotaktowa	!	!
2C/	Vir-	.	.	.	.	2E/	.	.	2e\	.	.
*	*	*	*lig	*	*	*	*	*	*	*	*
!LO:TX:t=P:problem=kreska pseudotaktowa	!	!	!	!	!	!	!	!	!	!	!
1D	-gi-	-i	1A	-gi-	-ni-	2.F/	.	.	2d\	.	.
*	*	*	*	*	*	*	*	*	*	*ij	*
.	.	.	.	.	.	.	.	.	2.f\	de	.
.	.	.	.	.	.	4G/	de	.	.	.	.
=35-	=35-	=35-	=35-	=35-	=35-	=35-	=35-	=35-	=35-	=35-	=35-
2.AA/	-ne	ge-	1c	-ne	.	2.A/	.	.	.	.	.
.	.	.	.	.	.	.	.	.	4e\	.	.
!	!	!	!	!	!	!	!	!	!LO:TX:t=P::problem=kreska pseudotaktowa&colon;między nutą a kropką	!	!
.	.	.	.	.	.	.	.	.	2.e\	.	.
!	!	!	!	!	!	!LO:TX:t=P:problem=kreska pseudotaktowa	!	!	!	!	!
4BB/	.	.	.	.	.	4G/	.	.	.	.	.
*	*	*	*Xlig	*	*	*	*	*	*	*	*
*	*	*	*lig	*	*	*	*	*	*	*	*
2C/	.	.	1A	.	-trix	2E/	.	.	.	.	.
.	.	.	.	.	.	.	.	.	4d\	.	.
!LO:TX:t=P:problem=kreska pseudotaktowa	!	!	!	!	!	!	!	!	!	!	!
2D/	.	.	.	.	.	2F/	.	.	1d\	Vir-	-ni-
=36-	=36-	=36-	=36-	=36-	=36-	=36-	=36-	=36-	=36-	=36-	=36-
!	!	!	!	!	!	!LO:TX:t=P:problem=kreska pseudotaktowa	!	!	!	!	!
1E	.	.	1G	.	.	1G	.	-ta	.	.	.
!	!	!	!	!	!	!	!	!	!LO:TX:t=P:problem=kreska pseudotaktowa	!	!
.	.	.	.	.	.	.	.	.	2c/	.	-trix
*	*	*	*Xlig	*	*	*	*	*	*	*	*
*	*	*	*lig	*	*	*	*	*	*	*	*
1D	.	-ni-	1F	.	.	1A	Vir-	per-	2d\	-gi-	.
.	.	.	.	.	.	.	.	.	2A/	.	.
=37-	=37-	=37-	=37-	=37-	=37-	=37-	=37-	=37-	=37-	=37-	=37-
*	*	*	*	*	*	*	*	*	*	*	*ij
2GG/	.	-trix	1G	.	.	2G/	-gi-	-man-	2.Bny/	-ne	De-
*	*	*ij	*	*	*	*	*	*	*	*	*
1G	de	De-	.	.	.	2E/	-ne	-si-	.	.	.
!	!	!	!	!	!	!	!	!	!LO:TX:t=P:problem=kreska pseudotaktowa	!	!
.	.	.	.	.	.	.	.	.	4c/	.	.
*	*	*	*Xlig	*	*	*	*	*	*	*	*
!	!	!	!	!	!	!LO:TX:t=P:problem=kreska pseudotaktowa	!	!	!	!	!
.	.	.	1A	.	.	1D	.	-ſti	4d\	.	-i
.	.	.	.	.	.	.	.	.	4e\	.	.
!LO:TX:t=P:problem=kreska pseudotaktowa	!	!	!	!	!	!	!	!	!	!	!
2F\	Vir-	i	.	.	.	.	.	.	1d\	de	ge-
=38-	=38-	=38-	=38-	=38-	=38-	=38-	=38-	=38-	=38-	=38-	=38-
1E	-gi-	ge-	1G	.	.	2r	.	.	.	.	.
*	*	*	*	*	*	*	*ij	*ij	*	*	*
!	!	!	!	!	!	!	!	!	!LO:TX:t=P:problem=kreska pseudotaktowa	!	!
.	.	.	.	.	.	2G/	de	per-	2c/	.	-ni-
*	*	*	*custos:E	*	*	*	*	*	*	*	*
2D/	-ne	.	1F	.	.	2A/	Vir-	.	2d\	Vir-	-trix
*	*ij	*	*	*	*	*	*	*	*	*	*
!	!	!	!	!	!	!LO:TX:t=P:problem=kreska pseudotaktowa	!	!	!LO:TX:t=P:problem=kreska pseudotaktowa	!	!
1D\	de	.	.	.	.	2F/	.	.	2A/	.	De-
!	!	!	!LO:LB:g=original	!	!	!	!	!	!	!	!
=39-	=39-	=39-	=39-	=39-	=39-	=39-	=39-	=39-	=39-	=39-	=39-
*	*	*	*xywh-#175:1015,1823,5852,846	*	*	*	*	*	*	*	*
*	*	*	*lig	*	*	*	*	*	*	*	*
.	.	.	1E	.	.	2G/	.	.	2.B/	-gi-	.
!LO:TX:t=P:problem=kreska pseudotaktowa	!	!	!	!	!	!	!	!	!	!	!
2C/	Vir-	.	.	.	.	1A	.	-man-	.	.	.
.	.	.	.	.	.	.	.	.	4c/	.	.
1BB	-gi-	-ni-	1D	.	.	.	.	.	1d	-ne	-i
!	!	!	!	!	!	!LO:TX:t=P:problem=kreska pseudotaktowa	!	!	!	!	!
.	.	.	.	.	.	2G/	.	.	.	.	.
*	*	*	*Xlig	*	*	*	*	*	*	*	*
=40-	=40-	=40-	=40-	=40-	=40-	=40-	=40-	=40-	=40-	=40-	=40-
*	*	*	*lig	*	*	*	*	*	*	*	*
!LO:TX:t=P:problem=kreska pseudotaktowa	!	!	!	!	!	!	!	!	!	!	!
1AA	-ne	-trix	1E	.	.	1A	.	-si-	4c/	.	ge-
*	*	*Xij	*	*	*	*	*	*	*	*	*
.	.	.	.	.	.	.	.	.	4d/	.	.
.	.	.	.	.	.	.	.	.	4e\	.	.
!	!	!	!	!	!	!	!	!	!LO:TX:t=P:problem=kreska pseudotaktowa	!	!
.	.	.	.	.	.	.	.	.	4c/	.	.
!	!	!	!	!	!	!LO:TX:t=P:problem=kreska pseudotaktowa	!	!	!	!	!
2r	.	.	1F	.	.	1D	-gi-	.	2.d\	de	.
!LO:TX:t=P:problem=kreska pseudotaktowa	!	!	!	!	!	!	!	!	!	!	!
2A\	de	De-	.	.	.	.	.	.	.	.	.
!	!	!	!	!	!	!	!	!	!LO:TX:t=P:problem=kreska pseudotaktowa	!	!
.	.	.	.	.	.	.	.	.	4c/	.	.
*	*	*	*Xlig	*	*	*	*	*	*	*	*
=41-	=41-	=41-	=41-	=41-	=41-	=41-	=41-	=41-	=41-	=41-	=41-
*	*	*	*lig	*	*	*	*	*	*	*	*
2F\	Vir-	-i	1D	.	.	4A/	.	-ſti	4d\	.	.
.	.	.	.	.	.	4G/	.	.	4e\	.	.
1A	-gi-	ge-	.	.	.	4F/	.	.	2.f\	.	.
.	.	.	.	.	.	4E/	.	.	.	.	.
!	!	!	!	!	!	!LO:TX:t=P:problem=kreska pseudotaktowa	!	!	!	!	!
.	.	.	1F	.	.	1D	-ne	.	.	.	.
*	*	*	*	*	*	*	*Xij	*Xij	*	*	*
*	*	*	*	*	*	*	*	*	*custos:d	*	*
.	.	.	.	.	.	.	.	.	4e\	.	.
*	*	*	*	*	*	*	*	*	*xywh-#11:7239,3420,6001,1071	*	*
!	!	!	!	!	!	!	!	!	!LO:LB:g=original	!	!
4G\	.	.	.	.	.	.	.	.	1d\	Vir-	-ni-
*custos:E	*	*	*	*	*	*	*	*	*	*	*
!LO:TX:t=P:problem=kreska pseudotaktowa	!	!	!	!	!	!	!	!	!	!	!
4F\	.	.	.	.	.	.	.	.	.	.	.
*	*	*	*Xlig	*	*	*	*	*	*	*	*
!LO:LB:g=original	!	!	!	!	!	!	!	!	!	!	!
=42-	=42-	=42-	=42-	=42-	=42-	=42-	=42-	=42-	=42-	=42-	=42-
*xywh-#264:911,2184,6055,1076	*	*	*	*	*	*	*	*	*	*	*
1E	.	.	1G	.	.	2r	.	.	.	.	.
!	!	!	!	!	!	!	!	!	!LO:TX:t=P:problem=kreska pseudotaktowa	!	!
.	.	.	.	.	.	2G/	de	De-	2c/	.	.
2D/	.	.	0A	.	.	2F/	Vir-	-i	2d\	.	-trix
!LO:TX:t=P:problem=kreska pseudotaktowa	!	!	!	!	!	!LO:TX:t=P:problem=kreska pseudotaktowa	!	!	!	!	!
2C/	.	.	.	.	.	2E/	-gi-	.	2e\	.	De-
=43-	=43-	=43-	=43-	=43-	=43-	=43-	=43-	=43-	=43-	=43-	=43-
1D	.	.	.	.	.	1F	-ne	.	2d\	.	-i
!	!	!	!	!	!	!	!	!	!LO:TX:t=P::problem=kreska pseudotaktowa&colon;między nutą a kropką	!	!
.	.	.	.	.	.	.	.	.	2.f\	.	ge-
2E\	.	-ni-	1G	.	.	2G/	.	.	.	.	.
.	.	.	.	.	.	.	.	.	4e\	.	.
*	*	*	*	*	*	*custos:A	*	*	*	*	*
!	!	!	!	!	!	!LO:TX:t=P:problem=kreska pseudotaktowa	!	!	!	!	!
2C/	.	-trix	.	.	.	2c\	.	.	1e\	-gi-	-ni-
!	!	!	!	!	!	!LO:LB:g=original	!	!	!	!	!
=44-	=44-	=44-	=44-	=44-	=44-	=44-	=44-	=44-	=44-	=44-	=44-
*	*	*	*	*	*	*xywh-#98:7316,3508,6122,1044	*	*	*	*	*
!LO:TX:t=P:problem=kreska pseudotaktowa	!	!	!	!	!	!	!	!	!	!	!
1D	-ne	.	1F	.	.	2.A\	.	.	.	.	.
*	*Xij	*	*	*	*	*	*	*	*	*	*
.	.	.	.	.	.	.	.	.	2d\	.	.
!	!	!	!	!	!	!LO:TX:t=P:problem=kreska pseudotaktowa	!	!	!	!	!
!	!	!	!	!	!	!LO:N:acc=#	!	!	!	!	!
.	.	.	.	.	.	4Bn\	.	.	.	.	.
!	!	!	!LO:TX:t=P:problem=kreska pseudotaktowa	!	!	!	!	!	!LO:TX:t=P:problem=kreska pseudotaktowa	!	!
2r	.	.	1E	.	.	2c\	.	.	1e	-ne	-trix
*	*	*	*	*	*	*	*	*	*	*Xij	*Xij
1G\	Ma-	in-	.	.	.	4B\	.	ge-	.	.	.
.	.	.	.	.	.	4A/	.	.	.	.	.
=45-	=45-	=45-	=45-	=45-	=45-	=45-	=45-	=45-	=45-	=45-	=45-
.	.	.	1E	Ma-	in-	2B\	.	-ni-	2r	.	.
!	!	!	!	!	!	!LO:TX:t=P:problem=kreska pseudotaktowa	!	!	!LO:TX:t=P:problem=kreska pseudotaktowa	!	!
4F\	.	.	.	.	.	2G/	.	.	2g\	Ma-	in-
!LO:TX:t=P:problem=kreska pseudotaktowa	!	!	!	!	!	!	!	!	!	!	!
4E\	.	.	.	.	.	.	.	.	.	.	.
*	*	*	*lig	*	*	*	*	*	*	*	*
!	!	!	!	!	!	!LO:TX:t=P:problem=kreska pseudotaktowa	!	!	!	!	!
2.D/	.	-ter-	1F	-tre	-ter-	1A	.	-trix	2f\	.	-ter-
.	.	.	.	.	.	.	.	.	2.d\	-tre	-ce-
4C/	.	.	.	.	.	.	.	.	.	.	.
=46-	=46-	=46-	=46-	=46-	=46-	=46-	=46-	=46-	=46-	=46-	=46-
!	!	!	!LO:TX:t=P:problem=kreska pseudotaktowa	!	!	!	!	!	!	!	!
4D/	.	.	1D	.	.	2r	.	.	.	.	.
4E\	.	.	.	.	.	.	.	.	4c/	.	.
!	!	!	!	!	!	!LO:TX:t=P:problem=kreska pseudotaktowa	!	!	!	!	!
1F	.	.	.	.	.	2F/	Ma-	De-	4A/	.	.
!	!	!	!	!	!	!	!	!	!LO:TX:t=P:problem=kreska pseudotaktowa	!	!
.	.	.	.	.	.	.	.	.	4B/	San-	.
*	*	*	*Xlig	*	*	*	*	*	*	*	*
.	.	.	1C	.	-ce-	2G/	-tre	.	1c	.	.
!LO:TX:t=P:problem=kreska pseudotaktowa	!	!	!	!	!	!	!	!	!	!	!
2E\	-tre	.	.	.	.	2.A/	.	-i	.	.	.
=47-	=47-	=47-	=47-	=47-	=47-	=47-	=47-	=47-	=47-	=47-	=47-
*	*	*	*lig	*	*	*	*	*	*	*	*
2.F\	.	-ce-	1D	San-	.	.	.	.	2A/	.	.
.	.	.	.	.	.	4G/	.	.	.	.	.
.	.	.	.	.	.	4F/	San-	.	2.d\	.	.
!	!	!	!	!	!	!LO:TX:t=P:problem=kreska pseudotaktowa	!	!	!	!	!
4G\	San-	-de	.	.	.	4E/	.	ge-	.	.	.
4A\	.	pro	1F	.	.	2D/	.	.	.	.	.
4G\	.	.	.	.	.	.	.	.	8c/L	.	.
.	.	.	.	.	.	.	.	.	8B/J	.	.
!	!	!	!	!	!	!	!	!	!LO:TX:t=P:problem=kreska pseudotaktowa	!	!
4F\	.	.	.	.	.	2.A/	.	.	2c/	.	.
!LO:TX:t=P:problem=kreska pseudotaktowa	!	!	!	!	!	!	!	!	!	!	!
4E\	.	.	.	.	.	.	.	.	.	.	.
*	*	*	*Xlig	*	*	*	*	*	*	*	*
=48-	=48-	=48-	=48-	=48-	=48-	=48-	=48-	=48-	=48-	=48-	=48-
*	*	*	*lig	*	*	*	*	*	*	*	*
1D	.	no-	1F	-cta	-de	.	.	.	1d	.	.
.	.	.	.	.	.	4F/	.	.	.	.	.
.	.	.	.	.	.	4A/	.	.	.	.	.
!	!	!	!	!	!	!LO:TX:t=P:problem=kreska pseudotaktowa	!	!	!	!	!
.	.	.	.	.	.	4B\	.	.	.	.	.
!LO:TX:t=P:problem=kreska pseudotaktowa	!	!	!	!	!	!	!	!	!LO:TX:t=P:problem=kreska pseudotaktowa	!	!
1C	-cta	-bis	1E	.	.	0c	.	-ni-	0e	-cta	-de
*	*	*	*Xlig	*	*	*	*	*	*	*	*
=49-	=49-	=49-	=49-	=49-	=49-	=49-	=49-	=49-	=49-	=49-	=49-
*	*	*	*lig	*	*	*	*	*	*	*	*
2r	.	.	1C	.	pro	.	.	.	.	.	.
2E\	.	.	.	.	.	.	.	.	.	.	.
2F\	Ma-	in-	1D	.	.	2A/	-cta	-trix	2d\	Ma-	pro
!LO:TX:t=P:problem=kreska pseudotaktowa	!	!	!	!	!	!	!	!	!	!	!
2D/	-ri-	-ter-	.	.	.	1d\	.	.	1f\	.	no-
*	*	*	*Xlig	*	*	*	*	*	*	*	*
=50-	=50-	=50-	=50-	=50-	=50-	=50-	=50-	=50-	=50-	=50-	=50-
2.F\	-a	-ce-	1D	Ma-	no-	.	.	.	.	.	.
.	.	.	.	.	.	4c\	Ma-	in-	4e\	.	.
*	*ij	*	*	*	*	*	*	*	*	*	*
!	!	!	!	!	!	!LO:TX:t=P:problem=kreska pseudotaktowa	!	!	!	!	!
4G\	Ma-	.	.	.	.	4B\	.	.	4d\	-ri-	.
!	!	!	!	!	!	!	!	!	!LO:TX:t=P:problem=kreska pseudotaktowa	!	!
1A	-ri-	-de	0F	.	.	4A/	.	-ter-	1c	-a	-bis
.	.	.	.	.	.	4F/	.	.	.	.	.
.	.	.	.	.	.	2.f\	.	.	.	.	.
=51-	=51-	=51-	=51-	=51-	=51-	=51-	=51-	=51-	=51-	=51-	=51-
!LO:TX:t=P:problem=kreska pseudotaktowa	!	!	!	!	!	!	!	!	!	!	!
1D	-a	.	.	.	.	.	.	.	2r	.	.
*	*Xij	*	*	*	*	*	*	*	*	*	*
.	.	.	.	.	.	4e\	.	.	.	.	.
.	.	.	.	.	.	1d	.	-ce-	2d\	Ma-	in-
!	!	!	!	!	!	!	!	!	!LO:TX:t=P:problem=kreska pseudotaktowa	!	!
2r	.	.	1E	.	.	.	.	.	1e	-ri-	-ter-
!	!	!	!	!	!	!LO:TX:t=P:problem=kreska pseudotaktowa	!	!	!	!	!
2G\	Ma-	pro	.	.	.	2c\	ri-	-de	.	.	.
=52-	=52-	=52-	=52-	=52-	=52-	=52-	=52-	=52-	=52-	=52-	=52-
2.F\	.	.	1D	.	.	2d\	-a	.	2f\	-a	-ce-
*	*	*	*	*	*	*	*	*	*	*ij	*
.	.	.	.	.	.	2A/	.	pro	2d\	Ma-	de
!LO:TX:t=P:problem=kreska pseudotaktowa	!	!	!	!	!	!	!	!	!	!	!
4E\	.	.	.	.	.	.	.	.	.	.	.
!	!	!	!	!	!	!LO:TX:t=P:problem=kreska pseudotaktowa	!	!	!LO:TX:t=P:problem=kreska pseudotaktowa	!	!
4D/	.	no-	1D	-ri-	-bis.	1d	.	no-	1f	-ri-	.
*custos:D	*	*	*	*	*	*	*	*	*	*	*
4C/	.	.	.	.	.	.	.	.	.	.	.
*xywh-#264:766,3016,2696,882	*	*	*	*	*	*	*	*	*	*	*
!LO:LB:g=original	!	!	!	!	!	!	!	!	!	!	!
!LO:TX:t=P:problem=kreska pseudotaktowa	!	!	!	!	!	!	!	!	!	!	!
2D/	.	.	.	.	.	.	.	.	.	.	.
=53-	=53-	=53-	=53-	=53-	=53-	=53-	=53-	=53-	=53-	=53-	=53-
*	*	*	*	*	*	*	*ij	*	*	*	*
2.AA/	.	.	[0El	-a.	.	2.c\	Ma-	.	2.e\	.	pro
*	*	*	*	*	*	*	*	*	*custos:c	*	*
!	!	!	!	!	!	!	!	!	!LO:TX:t=P:problem=kreska pseudotaktowa	!	!
4BB/	.	.	.	.	.	4B\	.	.	4d\	.	no-
*	*	*	*	*	*	*	*	*	*xywh-#12:825,552,2654,1111	*	*
!	!	!	!	!	!	!	!	!	!LO:PB:g=original	!	!
4C/	.	.	.	.	.	2A/	.	.	2c/	-a	-bis
*	*	*	*	*	*	*	*	*	*	*Xij	*
4D/	.	.	.	.	.	.	.	.	.	.	.
!LO:TX:t=P:problem=kreska pseudotaktowa	!	!	!	!	!	!LO:TX:t=P:problem=kreska pseudotaktowa	!	!	!	!	!
2E\	.	.	.	.	.	2G/	.	.	1B/	Ma-	no-
=54-	=54-	=54-	=54-	=54-	=54-	=54-	=54-	=54-	=54-	=54-	=54-
2C/	.	.	0E_	.	.	2A/	.	.	.	.	.
!	!	!	!	!	!	!LO:TX:t=P:problem=kreska pseudotaktowa	!	!	!	!	!
2AA/	.	.	.	.	.	2c\	.	.	1A	.	.
1E	.	.	.	.	.	2B\	.	.	.	.	.
!	!	!	!	!	!	!	!	!	!LO:TX:t=P:problem=kreska pseudotaktowa	!	!
.	.	.	.	.	.	1c\	.	-bis.	2G/	.	.
=55-	=55-	=55-	=55-	=55-	=55-	=55-	=55-	=55-	=55-	=55-	=55-
1AA	-ri-	.	0E]	.	.	.	.	.	2A/	.	.
.	.	.	.	.	.	4B\	-ri-	.	2c/	-ri-	-bis
.	.	.	.	.	.	4A/	.	.	.	.	.
!LO:N:vis=0	!	!	!	!	!	!LO:N:vis=0	!	!	!LO:N:vis=0	!	!
1E;<	-a	-bis	.	.	.	1G#X;;	-a	.	1B;>	-a	.
*	*	*	*	*	*	*	*Xij	*	*	*	*
==	==	==	==	==	==	==	==	==	==	==	==
*-	*-	*-	*-	*-	*-	*-	*-	*-	*-	*-	*-
!!!system-decoration: [(s1,s2,s3,s4)]
!!!RDF**kern: l = terminal long
!!!RDF**kern: > = above
!!!RDF**kern: < = below
!!!EED: Mateusz Mrugas
!!!EEV: 2021-03-16
!!!ENC: Andrzej Borzym
!!!END: 2021-02-21
!!!IIIF: https://repozytorium.nifc.pl/islandora/object/pl-kk%3A1956/datastream/IIIF/view
!!!ENC-iiif: Mateusz Mrugas
!!!END-iiif: 2022-09-06
!!!YEC: Copyright 2022 Narodowy Instytut Fryderyka Chopina (https://polishscores.org)
!!!YEM: License CC-BY-4.0 (https://creativecommons.org/licenses/by/4.0)
